X:38
T:L'eau de roche
R:Scottiche
N:premire partie adapte de l'air sur www.tradfrance.com
O:France
A:Massif Central
M:C
L:1/8
Q:1/4=150
K:C
c2de f2d2 | gfga gfed | c2de f2d2 | gfga g4 |\
defd g2fe | dedc BAG2 | defd g2fe | dedB c4 |
Geee Geee | Geef e2d2 | Gddd Gddd | Gdde c4 |\
edef e2d2 | dcde d4   | gagf edef | e2d2 c4 ||
